icons/fill-new-time-alarm-clock.svg

<svg xmlns="http://www.w3.org/2000/svg" width="32px" height="32px" viewBox="0 0 32 32" version="1.1">
    <title>fill-new-time-alarm-clock</title>
    <g id="fill-new-time-alarm-clock" stroke-width="1" fill-rule="evenodd">
        <path d="M8.04939683,26.5229911 C8.59531973,26.902353 9.17104964,27.2428356 9.77124977,27.5415009 L8.36824314,29.9961389 C8.09423317,30.4756564 7.48337851,30.6422531 7.00386106,30.3682431 C6.52434362,30.0942332 6.35774689,29.4833785 6.63175686,29.0038611 L8.04939683,26.5229911 Z M23.9521265,26.5238667 L25.3682431,29.0038611 C25.6422531,29.4833785 25.4756564,30.0942332 24.9961389,30.3682431 C24.5166215,30.6422531 23.9057668,30.4756564 23.6317569,29.9961389 L22.2287502,27.5415009 C22.8289504,27.2428356 23.4046803,26.902353 23.9521265,26.5238667 Z M16,3 C22.627417,3 28,8.372583 28,15 C28,21.627417 22.627417,27 16,27 C9.372583,27 4,21.627417 4,15 C4,8.372583 9.372583,3 16,3 Z M15,9 C14.4477153,9 14,9.44771525 14,10 L14,17 C14,17.5522847 14.4477153,18 15,18 L21,18 C21.5522847,18 22,17.5522847 22,17 L21.9932723,16.8833789 C21.9355072,16.3860402 21.5128358,16 21,16 L16,16 L16,10 C16,9.44771525 15.5522847,9 15,9 Z M7,2 C7.88400243,2 8.71442324,2.22941019 9.4349752,2.63194333 C6.48739148,4.19952339 4.16702697,6.78970109 2.94658037,9.92914327 C2.35141329,9.1061189 2,8.09409794 2,7 C2,4.23857625 4.23857625,2 7,2 Z M25,2 C27.7614237,2 30,4.23857625 30,7 C30,8.09409794 29.6485867,9.1061189 29.0524733,9.92934971 C27.832973,6.78970109 25.5126085,4.19952339 22.565557,2.63184103 C23.2855768,2.22941019 24.1159976,2 25,2 Z" id="&#24418;&#29366;" />
    </g>
</svg>

<svg xmlns="http://www.w3.org/2000/svg" viewBox="0 0 32 32"><path fill="currentColor" d="M8.05 26.523c.545.38 1.121.72 1.721 1.019l-1.403 2.454a1 1 0 1 1-1.736-.992zm15.902 0 1.416 2.48a1 1 0 1 1-1.736.993l-1.403-2.454c.6-.3 1.176-.64 1.723-1.018M16 3c6.627 0 12 5.373 12 12s-5.373 12-12 12S4 21.627 4 15 9.373 3 16 3m-1 6a1 1 0 0 0-1 1v7a1 1 0 0 0 1 1h6a1 1 0 0 0 1-1l-.007-.117A1 1 0 0 0 21 16h-5v-6a1 1 0 0 0-1-1M7 2c.884 0 1.714.23 2.435.632a14.048 14.048 0 0 0-6.488 7.297A5 5 0 0 1 7 2m18 0a5 5 0 0 1 4.052 7.93 14.044 14.044 0 0 0-6.486-7.298A4.975 4.975 0 0 1 25 2"/></svg>
